X: 4
T: Woodchopper's Reel
I: Woodchopper's Reel	R-73	D	reel
M: C|
R: reel
K: D
"D"afdB AdFA| DFAd f2ef| "A"(3gfe cB Aceg| a^gab a2f=g|
"D"afdB AdFA| DFAd f2ef| "A"(3gfe cB Acec| "D"dfec d4 :|
|:"D"DFAd (3BdB AF| DFAd (3BdB Az| "A"A,CEA ceaf| gfed cBAF|
"D"DFAd (3BdB AF| DFAd (3BdB Az| "A"A,CEA ceaf| (3gfe cA "D"d4 :|
%%text Roaring Jelly  R-73

%%vskip 10pt

